; generated by PrusaSlicer 2.3.2+linux-x64 on 2021-08-27 at 09:39:16 UTC


;
;

;
;
; 

; external perimeters extrusion width = 0.45mm
; perimeters extrusion width = 0.45mm
; infill extrusion width = 0.45mm
; solid infill extrusion width = 0.45mm
; top infill extrusion width = 0.40mm
; first layer extrusion width = 0.42mm

M73 P0 R88
M201 X1250 Y1250 Z400 E5000 ; sets maximum accelerations, mm/sec^2
M203 X180 Y180 Z12 E80 ; sets maximum feedrates, mm/sec
M204 P1250 R1250 T1250 ; sets acceleration (P, T) and retract acceleration (R), mm/sec^2
M205 X8.00 Y8.00 Z2.00 E10.00 ; sets the jerk limits, mm/sec
M205 S0 T0 ; sets the minimum extruding and travel feed rate, mm/sec
M107
;TYPE:Custom
G90 ; use absolute coordinates
M83 ; extruder relative mode
M104 S170 ; set extruder temp for bed leveling
M140 S60 ; set bed temp
M109 R170 ; wait for bed leveling temp
M190 S60 ; wait for bed temp
G28 ; home all without mesh bed level
G29 ; mesh bed leveling 
M104 S215 ; set extruder temp
G92 E0.0
G1 Y-2.0 X179 F2400
G1 Z3 F720
M109 S215 ; wait for extruder temp

; intro line
G1 X170 F1000
G1 Z0.2 F720
G1 X110.0 E8.0 F900
G1 X40.0 E10.0 F700
G92 E0.0

M221 S95 ; set flow
G21 ; set units to millimeters
G90 ; use absolute coordinates
M83 ; use relative distances for extrusion
M900 K0.2 ; Filament gcode LA 1.5
; ; Filament gcode LA 1.0
;LAYER_CHANGE
;Z:0.2
;HEIGHT:0.2
;BEFORE_LAYER_CHANGE
G92 E0.0
;0.2


G1 E-3.20000 F4200.000
G1 Z0.200 F9000.000
;AFTER_LAYER_CHANGE
;0.2
G1 Z0.400
G1 X58.410 Y58.407
G1 Z0.200
G1 E3.20000 F2400.000
M204 S800
;TYPE:Skirt
;WIDTH:0.42
G1 F1200.000
G1 X61.057 Y55.968 E0.11285
G1 X63.738 Y53.857 E0.10701
G1 X66.578 Y51.957 E0.10713
G1 X69.715 Y50.193 E0.11285
G1 X72.905 Y48.723 E0.11011
G1 X76.283 Y47.482 E0.11285
G1 X79.568 Y46.558 E0.10701
G1 X82.919 Y45.889 E0.10713
G1 X86.493 Y45.461 E0.11285
G1 X90.006 Y45.323 E0.11023
G1 X93.587 Y45.468 E0.11238
G1 X96.980 Y45.871 E0.10713
G1 X99.786 Y46.427 E0.08969
G1 X105.034 Y47.964 E0.17145
G1 X107.095 Y48.723 E0.06889
G1 X110.285 Y50.193 E0.11011
G1 X113.422 Y51.957 E0.11285
G1 X116.262 Y53.857 E0.10712
G1 X118.946 Y55.970 E0.10713
G1 X121.590 Y58.407 E0.11273
G1 X123.974 Y60.986 E0.11011
G1 X126.198 Y63.816 E0.11285
G1 X128.094 Y66.658 E0.10712
G1 X129.765 Y69.638 E0.10713
G1 X131.277 Y72.905 E0.11285
G1 X132.516 Y76.280 E0.11273
G1 X133.442 Y79.568 E0.10713
G1 X134.111 Y82.919 E0.10713
G1 X134.539 Y86.493 E0.11285
G1 X134.677 Y90.002 E0.11011
G1 X134.531 Y93.594 E0.11273
G1 X134.127 Y96.987 E0.10713
G1 X133.467 Y100.317 E0.10643
G1 X132.491 Y103.804 E0.11355
G1 X131.277 Y107.095 E0.10999
G1 X129.765 Y110.362 E0.11285
G1 X128.094 Y113.342 E0.10713
G1 X126.259 Y116.092 E0.10365
G1 X123.979 Y119.008 E0.11608
G1 X121.590 Y121.593 E0.11035
G1 X118.943 Y124.032 E0.11285
G1 X116.262 Y126.143 E0.10701
G1 X113.422 Y128.043 E0.10713
G1 X110.285 Y129.807 E0.11285
G1 X107.095 Y131.277 E0.11011
G1 X103.717 Y132.518 E0.11285
G1 X100.432 Y133.442 E0.10701
G1 X97.081 Y134.111 E0.10713
G1 X93.507 Y134.539 E0.11285
G1 X89.998 Y134.677 E0.11011
G1 X86.489 Y134.539 E0.11011
G1 X82.854 Y134.098 E0.11481
G1 X79.569 Y133.442 E0.10504
G1 X76.280 Y132.516 E0.10713
G1 X72.905 Y131.277 E0.11273
G1 X69.715 Y129.807 E0.11011
G1 X66.578 Y128.043 E0.11285
G1 X63.738 Y126.143 E0.10712
G1 X61.054 Y124.030 E0.10713
G1 X58.410 Y121.593 E0.11273
G1 X56.026 Y119.014 E0.11011
G1 X53.802 Y116.184 E0.11285
G1 X51.906 Y113.342 E0.10712
G1 X50.235 Y110.362 E0.10713
G1 X48.723 Y107.095 E0.11285
G1 X47.484 Y103.720 E0.11273
G1 X46.558 Y100.432 E0.10713
G1 X45.889 Y97.081 E0.10713
G1 X45.461 Y93.507 E0.11285
G1 X45.323 Y89.998 E0.11011
G1 X45.469 Y86.406 E0.11273
G1 X45.873 Y83.013 E0.10713
G1 X46.533 Y79.683 E0.10643
G1 X47.509 Y76.196 E0.11355
G1 X48.723 Y72.905 E0.10999
G1 X50.235 Y69.638 E0.11285
G1 X51.906 Y66.658 E0.10713
G1 X53.741 Y63.908 E0.10365
G1 X56.021 Y60.992 E0.11608
G1 X58.369 Y58.451 E0.10847
M204 S1250
; printing object programming_holder.stl id:0 copy 0
G1 E-2.24000 F4200.000
;WIPE_START
G1 F7200.000
G1 X59.578 Y57.334 E-0.91200
;WIPE_END
G1 E-0.04800 F4200.000
G1 Z0.400 F9000.000
G1 X88.046 Y86.615
G1 Z0.200
G1 E3.20000 F2400.000
M204 S800
;TYPE:Perimeter
G1 F1200.000
G1 X91.954 Y86.615 E0.12256
G1 X93.909 Y90.000 E0.12256
G1 X91.954 Y93.385 E0.12256
G1 X88.046 Y93.385 E0.12256
G1 X86.091 Y90.000 E0.12256
G1 X88.016 Y86.667 E0.12068
M204 S1250
G1 X88.263 Y86.992 F9000.000
M204 S800
;TYPE:External perimeter
G1 F1200.000
G1 X91.737 Y86.992 E0.10891
G1 X93.473 Y90.000 E0.10891
G1 X91.737 Y93.008 E0.10891
G1 X88.263 Y93.008 E0.10891
G1 X86.527 Y90.000 E0.10891
G1 X88.233 Y87.044 E0.10703
M204 S1250
G1 X88.263 Y86.592 F9000.000
G1 E-2.24000 F4200.000
;WIPE_START
G1 F7200.000
G1 X89.879 Y87.019 E-0.91200
;WIPE_END
G1 E-0.04800 F4200.000
G1 Z0.400 F9000.000
G1 X97.535 Y78.961
G1 Z0.200
G1 E3.20000 F2400.000
M204 S800
;TYPE:Perimeter
G1 F1200.000
G1 X98.359 Y78.961 E0.02585
G1 X98.542 Y79.077 E0.00677
G1 X98.910 Y79.196 E0.01213
G1 X99.282 Y79.235 E0.01174
G1 X99.654 Y79.196 E0.01174
G1 X100.022 Y79.077 E0.01213
G1 X100.205 Y78.961 E0.00677
G1 X100.899 Y78.961 E0.02178
G1 X101.082 Y79.077 E0.00677
G1 X101.450 Y79.196 E0.01213
G1 X101.822 Y79.235 E0.01174
G1 X102.194 Y79.196 E0.01174
G1 X102.562 Y79.077 E0.01213
G1 X102.745 Y78.961 E0.00677
G1 X103.439 Y78.961 E0.02178
G1 X103.622 Y79.077 E0.00677
G1 X103.990 Y79.196 E0.01213
G1 X104.362 Y79.235 E0.01174
G1 X104.734 Y79.196 E0.01174
G1 X105.102 Y79.077 E0.01213
G1 X105.285 Y78.961 E0.00677
G1 X106.109 Y78.961 E0.02585
G1 X106.109 Y77.794 E0.03660
G1 X106.144 Y77.631 E0.00521
G1 X106.144 Y77.257 E0.01174
G1 X106.109 Y77.094 E0.00521
G1 X106.109 Y75.254 E0.05771
G1 X106.144 Y75.091 E0.00521
G1 X106.144 Y74.717 E0.01174
G1 X106.109 Y74.554 E0.00521
G1 X106.109 Y73.387 E0.03660
G1 X105.285 Y73.387 E0.02585
G1 X105.109 Y73.276 E0.00652
G1 X105.109 Y51.361 E0.68712
G1 X105.886 Y51.648 E0.02597
G1 X108.846 Y53.012 E0.10220
G1 X111.690 Y54.605 E0.10220
G1 X114.400 Y56.416 E0.10220
G1 X116.960 Y58.434 E0.10220
G1 X119.354 Y60.646 E0.10220
G1 X121.566 Y63.040 E0.10220
G1 X123.584 Y65.600 E0.10220
G1 X125.395 Y68.310 E0.10220
G1 X126.988 Y71.154 E0.10220
G1 X128.352 Y74.114 E0.10220
G1 X129.481 Y77.172 E0.10220
G1 X130.365 Y80.309 E0.10220
G1 X131.001 Y83.506 E0.10220
G1 X131.384 Y86.743 E0.10220
G1 X131.512 Y90.000 E0.10220
G1 X131.384 Y93.257 E0.10220
G1 X131.001 Y96.494 E0.10220
G1 X130.368 Y99.677 E0.10176
G1 X129.481 Y102.828 E0.10265
G1 X128.352 Y105.886 E0.10220
G1 X126.988 Y108.846 E0.10220
G1 X125.395 Y111.690 E0.10220
G1 X123.592 Y114.389 E0.10176
G1 X121.566 Y116.960 E0.10265
G1 X119.354 Y119.354 E0.10220
G1 X116.960 Y121.566 E0.10220
G1 X114.389 Y123.592 E0.10265
G1 X111.690 Y125.395 E0.10176
G1 X108.846 Y126.988 E0.10220
G1 X105.886 Y128.352 E0.10220
G1 X102.828 Y129.481 E0.10220
G1 X99.677 Y130.368 E0.10265
G1 X96.494 Y131.001 E0.10176
G1 X93.257 Y131.384 E0.10220
G1 X90.000 Y131.512 E0.10220
G1 X86.743 Y131.384 E0.10220
G1 X83.506 Y131.001 E0.10220
G1 X80.309 Y130.365 E0.10220
G1 X77.172 Y129.481 E0.10220
G1 X74.114 Y128.352 E0.10220
G1 X71.141 Y126.981 E0.10265
G1 X68.310 Y125.395 E0.10176
G1 X65.600 Y123.584 E0.10220
G1 X63.040 Y121.566 E0.10220
G1 X60.646 Y119.354 E0.10220
G1 X58.434 Y116.960 E0.10220
G1 X56.416 Y114.400 E0.10220
G1 X54.605 Y111.690 E0.10220
G1 X53.019 Y108.859 E0.10176
G1 X51.648 Y105.886 E0.10265
G1 X50.519 Y102.828 E0.10220
G1 X49.635 Y99.691 E0.10220
G1 X48.999 Y96.494 E0.10220
G1 X48.616 Y93.257 E0.10220
G1 X48.488 Y90.000 E0.10220
G1 X48.616 Y86.743 E0.10220
G1 X48.999 Y83.506 E0.10220
G1 X49.632 Y80.323 E0.10176
G1 X50.519 Y77.172 E0.10265
G1 X51.648 Y74.114 E0.10220
G1 X53.012 Y71.154 E0.10220
G1 X54.605 Y68.310 E0.10220
G1 X56.408 Y65.611 E0.10176
G1 X58.434 Y63.040 E0.10265
G1 X60.646 Y60.646 E0.10220
G1 X63.040 Y58.434 E0.10220
G1 X65.611 Y56.408 E0.10265
G1 X68.310 Y54.605 E0.10176
G1 X71.154 Y53.012 E0.10220
G1 X74.114 Y51.648 E0.10220
G1 X77.172 Y50.519 E0.10220
G1 X80.309 Y49.635 E0.10220
G1 X83.506 Y48.999 E0.10220
G1 X86.743 Y48.616 E0.10220
G1 X90.014 Y48.488 E0.10265
G1 X93.257 Y48.616 E0.10176
G1 X96.494 Y48.999 E0.10220
G1 X98.535 Y49.405 E0.06525
G1 X98.535 Y73.276 E0.74845
G1 X98.359 Y73.387 E0.00652
G1 X97.535 Y73.387 E0.02585
G1 X97.535 Y74.554 E0.03660
G1 X97.500 Y74.717 E0.00521
G1 X97.500 Y75.091 E0.01174
G1 X97.535 Y75.254 E0.00521
G1 X97.535 Y77.094 E0.05771
G1 X97.500 Y77.257 E0.00521
G1 X97.500 Y77.631 E0.01174
G1 X97.535 Y77.794 E0.00521
G1 X97.535 Y78.901 E0.03472
M204 S1250
G1 X97.912 Y78.584 F9000.000
M204 S800
;TYPE:External perimeter
G1 F1200.000
G1 X98.469 Y78.584 E0.01746
G1 X98.703 Y78.733 E0.00871
G1 X98.988 Y78.825 E0.00940
G1 X99.282 Y78.856 E0.00926
G1 X99.576 Y78.825 E0.00926
G1 X99.861 Y78.733 E0.00940
G1 X100.095 Y78.584 E0.00871
G1 X101.009 Y78.584 E0.02864
G1 X101.243 Y78.733 E0.00871
G1 X101.528 Y78.825 E0.00940
G1 X101.822 Y78.856 E0.00926
G1 X102.116 Y78.825 E0.00926
G1 X102.401 Y78.733 E0.00940
G1 X102.635 Y78.584 E0.00871
G1 X103.549 Y78.584 E0.02864
G1 X103.783 Y78.733 E0.00871
G1 X104.068 Y78.825 E0.00940
G1 X104.362 Y78.856 E0.00926
G1 X104.656 Y78.825 E0.00926
G1 X104.941 Y78.733 E0.00940
G1 X105.175 Y78.584 E0.00871
G1 X105.732 Y78.584 E0.01746
G1 X105.732 Y77.754 E0.02602
G1 X105.767 Y77.592 E0.00521
G1 X105.767 Y77.296 E0.00926
G1 X105.732 Y77.134 E0.00521
G1 X105.732 Y75.214 E0.06020
G1 X105.767 Y75.052 E0.00521
G1 X105.767 Y74.756 E0.00926
G1 X105.732 Y74.594 E0.00521
G1 X105.732 Y73.764 E0.02602
G1 X105.175 Y73.764 E0.01746
G1 X104.941 Y73.615 E0.00871
G1 X104.732 Y73.547 E0.00688
G1 X104.732 Y50.820 E0.71260
G1 X106.030 Y51.299 E0.04340
G1 X109.018 Y52.676 E0.10313
G1 X111.887 Y54.283 E0.10313
G1 X114.622 Y56.111 E0.10313
G1 X117.205 Y58.147 E0.10313
G1 X119.620 Y60.380 E0.10313
G1 X121.853 Y62.795 E0.10313
G1 X123.889 Y65.378 E0.10313
M73 P1 R88
G1 X125.717 Y68.113 E0.10313
G1 X127.324 Y70.982 E0.10313
G1 X128.701 Y73.970 E0.10313
G1 X129.839 Y77.055 E0.10313
G1 X130.732 Y80.221 E0.10313
G1 X131.374 Y83.447 E0.10313
G1 X131.761 Y86.713 E0.10313
G1 X131.890 Y90.000 E0.10313
G1 X131.761 Y93.287 E0.10313
G1 X131.374 Y96.553 E0.10313
G1 X130.735 Y99.765 E0.10268
G1 X129.839 Y102.945 E0.10358
G1 X128.701 Y106.030 E0.10313
G1 X127.324 Y109.018 E0.10313
G1 X125.717 Y111.887 E0.10313
G1 X123.897 Y114.610 E0.10268
G1 X121.853 Y117.205 E0.10358
G1 X119.620 Y119.620 E0.10313
G1 X117.205 Y121.853 E0.10313
G1 X114.610 Y123.897 E0.10358
G1 X111.887 Y125.717 E0.10268
G1 X109.018 Y127.324 E0.10313
G1 X106.030 Y128.701 E0.10313
G1 X102.945 Y129.839 E0.10313
G1 X99.765 Y130.735 E0.10358
G1 X96.553 Y131.374 E0.10268
G1 X93.287 Y131.761 E0.10313
G1 X90.000 Y131.890 E0.10313
G1 X86.713 Y131.761 E0.10313
G1 X83.447 Y131.374 E0.10313
G1 X80.221 Y130.732 E0.10313
G1 X77.055 Y129.839 E0.10313
G1 X73.970 Y128.701 E0.10313
G1 X70.970 Y127.317 E0.10358
G1 X68.113 Y125.717 E0.10268
G1 X65.378 Y123.889 E0.10313
G1 X62.795 Y121.853 E0.10313
G1 X60.380 Y119.620 E0.10313
G1 X58.147 Y117.205 E0.10313
G1 X56.111 Y114.622 E0.10313
G1 X54.283 Y111.887 E0.10313
M73 P1 R87
G1 X52.683 Y109.030 E0.10268
G1 X51.299 Y106.030 E0.10358
G1 X50.161 Y102.945 E0.10313
G1 X49.268 Y99.779 E0.10313
G1 X48.626 Y96.553 E0.10313
G1 X48.239 Y93.287 E0.10313
G1 X48.110 Y90.000 E0.10313
G1 X48.239 Y86.713 E0.10313
G1 X48.626 Y83.447 E0.10313
G1 X49.265 Y80.235 E0.10268
G1 X50.161 Y77.055 E0.10358
G1 X51.299 Y73.970 E0.10313
G1 X52.676 Y70.982 E0.10313
G1 X54.283 Y68.113 E0.10313
G1 X56.103 Y65.390 E0.10268
G1 X58.147 Y62.795 E0.10358
G1 X60.380 Y60.380 E0.10313
G1 X62.795 Y58.147 E0.10313
G1 X65.390 Y56.103 E0.10358
G1 X68.113 Y54.283 E0.10268
G1 X70.982 Y52.676 E0.10313
G1 X73.970 Y51.299 E0.10313
G1 X77.055 Y50.161 E0.10313
G1 X80.221 Y49.268 E0.10313
G1 X83.447 Y48.626 E0.10313
G1 X86.713 Y48.239 E0.10313
G1 X90.014 Y48.111 E0.10358
G1 X93.287 Y48.239 E0.10268
G1 X96.553 Y48.626 E0.10313
G1 X98.912 Y49.095 E0.07541
G1 X98.912 Y73.547 E0.76668
G1 X98.703 Y73.615 E0.00688
G1 X98.469 Y73.764 E0.00871
G1 X97.912 Y73.764 E0.01746
G1 X97.912 Y74.594 E0.02602
G1 X97.877 Y74.756 E0.00521
G1 X97.877 Y75.052 E0.00926
G1 X97.912 Y75.214 E0.00521
G1 X97.912 Y77.134 E0.06020
G1 X97.877 Y77.296 E0.00521
G1 X97.877 Y77.592 E0.00926
G1 X97.912 Y77.754 E0.00521
G1 X97.912 Y78.524 E0.02414
M204 S1250
G1 X97.917 Y78.984 F9000.000
G1 E-2.24000 F4200.000
;WIPE_START
G1 F7200.000
G1 X98.469 Y78.584 E-0.31030
G1 X98.703 Y78.733 E-0.15398
G1 X98.988 Y78.825 E-0.16606
G1 X99.282 Y78.856 E-0.16361
G1 X99.494 Y78.834 E-0.11804
;WIPE_END
G1 E-0.04800 F4200.000
G1 Z0.400 F9000.000
G1 X98.422 Y50.279
G1 Z0.200
G1 E3.20000 F2400.000
M204 S800
;TYPE:Solid infill
;WIDTH:0.421166
G1 F1200.000
G1 X97.662 Y49.520 E0.03378
G1 X96.995 Y49.387 E0.02141
G1 X98.252 Y50.644 E0.05593
G1 X98.252 Y51.179 E0.01682
G1 X96.338 Y49.265 E0.08513
G1 X95.731 Y49.193 E0.01922
G1 X98.252 Y51.714 E0.11212
G1 X98.252 Y52.249 E0.01682
G1 X95.125 Y49.121 E0.13911
G1 X94.518 Y49.050 E0.01922
G1 X98.252 Y52.784 E0.16609
G1 X98.252 Y53.319 E0.01682
G1 X93.911 Y48.978 E0.19308
G1 X93.304 Y48.906 E0.01922
G1 X98.252 Y53.854 E0.22007
G1 X98.252 Y54.389 E0.01682
G1 X92.742 Y48.878 E0.24509
G1 X92.185 Y48.857 E0.01753
G1 X98.252 Y54.924 E0.26985
G1 X98.252 Y55.458 E0.01682
G1 X91.628 Y48.835 E0.29462
G1 X91.072 Y48.813 E0.01753
G1 X98.252 Y55.993 E0.31938
G1 X98.252 Y56.528 E0.01682
G1 X90.515 Y48.791 E0.34415
G1 X89.962 Y48.773 E0.01739
G1 X98.252 Y57.063 E0.36873
G1 X98.252 Y57.598 E0.01682
G1 X89.447 Y48.793 E0.39163
G1 X88.932 Y48.813 E0.01621
G1 X98.252 Y58.133 E0.41453
G1 X98.252 Y58.668 E0.01682
G1 X88.418 Y48.833 E0.43743
G1 X87.903 Y48.854 E0.01621
G1 X98.252 Y59.203 E0.46033
G1 X98.252 Y59.738 E0.01682
G1 X87.388 Y48.874 E0.48323
G1 X86.873 Y48.894 E0.01621
G1 X98.252 Y60.273 E0.50613
G1 X98.252 Y60.808 E0.01682
G1 X86.387 Y48.943 E0.52775
G1 X85.909 Y48.999 E0.01515
G1 X98.252 Y61.343 E0.54902
G1 X98.252 Y61.878 E0.01682
G1 X85.430 Y49.056 E0.57030
G1 X84.952 Y49.112 E0.01515
G1 X98.252 Y62.412 E0.59157
G1 X98.252 Y62.947 E0.01682
G1 X84.474 Y49.169 E0.61285
G1 X83.995 Y49.226 E0.01515
G1 X98.252 Y63.482 E0.63412
G1 X98.252 Y64.017 E0.01682
G1 X83.519 Y49.284 E0.65530
G1 X83.073 Y49.373 E0.01431
G1 X98.252 Y64.552 E0.67514
G1 X98.252 Y65.087 E0.01682
G1 X82.627 Y49.462 E0.69499
G1 X82.181 Y49.551 E0.01431
G1 X98.252 Y65.622 E0.71483
G1 X98.252 Y66.157 E0.01682
G1 X81.735 Y49.639 E0.73468
G1 X81.289 Y49.728 E0.01431
G1 X98.252 Y66.692 E0.75452
G1 X98.252 Y67.227 E0.01682
G1 X80.842 Y49.817 E0.77437
G1 X80.396 Y49.906 E0.01431
G1 X98.252 Y67.762 E0.79421
G1 X98.252 Y68.297 E0.01682
G1 X79.978 Y50.022 E0.81283
G1 X79.560 Y50.140 E0.01363
G1 X98.252 Y68.831 E0.83139
G1 X98.252 Y69.366 E0.01682
G1 X79.143 Y50.257 E0.84995
G1 X78.726 Y50.375 E0.01363
G1 X98.252 Y69.901 E0.86851
G1 X98.252 Y70.436 E0.01682
G1 X78.309 Y50.493 E0.88707
G1 X77.891 Y50.610 E0.01363
G1 X98.252 Y70.971 E0.90562
G1 X98.252 Y71.506 E0.01682
G1 X77.474 Y50.728 E0.92418
G1 X77.070 Y50.859 E0.01336
G1 X98.252 Y72.041 E0.94217
G1 X98.252 Y72.576 E0.01682
G1 X76.679 Y51.003 E0.95955
G1 X76.288 Y51.147 E0.01310
G1 X98.245 Y73.104 E0.97663
M73 P2 R87
G1 X97.710 Y73.104 E0.01682
G1 X75.897 Y51.291 E0.97022
G1 X75.507 Y51.435 E0.01310
G1 X97.252 Y73.181 E0.96721
G1 X97.252 Y73.716 E0.01682
G1 X75.116 Y51.579 E0.98459
G1 X74.725 Y51.724 E0.01310
G1 X97.252 Y74.251 E1.00197
G1 X97.252 Y74.525 E0.00862
G1 X97.218 Y74.751 E0.00720
G1 X74.334 Y51.868 E1.01782
G1 X73.961 Y52.029 E0.01279
G1 X97.252 Y75.320 E1.03595
G1 X97.252 Y75.855 E0.01682
G1 X73.595 Y52.198 E1.05224
G1 X73.229 Y52.367 E0.01268
G1 X97.252 Y76.390 E1.06852
G1 X97.252 Y76.925 E0.01682
G1 X72.863 Y52.536 E1.08481
M73 P2 R86
G1 X72.497 Y52.705 E0.01268
G1 X97.218 Y77.426 E1.09956
G1 X97.218 Y77.661 E0.00740
G1 X97.252 Y77.823 E0.00522
G1 X97.252 Y77.995 E0.00540
G1 X72.131 Y52.873 E1.11738
G1 X71.764 Y53.042 E0.01268
G1 X97.422 Y78.700 E1.14121
M204 S1250
G1 E-2.24000 F4200.000
;WIPE_START
G1 F7200.000
G1 X96.258 Y77.536 E-0.91200
;WIPE_END
G1 E-0.04800 F4200.000
G1 Z0.400 F9000.000
G1 X116.601 Y58.295
G1 Z0.200
